src/assets/duotone/ReceiptSearch.svg

<svg width="24" height="24" viewBox="0 0 24 24"  xmlns="http://www.w3.org/2000/svg">
<path opacity="0.4" d="M6.73026 19.7C7.55026 18.82 8.80023 18.89 9.52023 19.85L10.5302 21.2C11.3402 22.27 12.6502 22.27 13.4602 21.2L14.4702 19.85C15.1902 18.89 16.4403 18.82 17.2603 19.7C19.0403 21.6 20.4902 20.97 20.4902 18.31V7.04999C20.4902 3.01999 19.5502 2.01001 15.7702 2.01001H8.21024C4.43024 2.01001 3.49023 3.01999 3.49023 7.04999V18.31C3.50023 20.97 4.96026 21.59 6.73026 19.7Z" />
<path d="M15.6599 13.47L14.9199 12.73C15.2999 12.15 15.5299 11.45 15.5299 10.7C15.5299 8.66001 13.8699 7 11.8299 7C9.78986 7 8.12988 8.66001 8.12988 10.7C8.12988 12.74 9.78986 14.4 11.8299 14.4C12.5799 14.4 13.2799 14.17 13.8599 13.79L14.5999 14.53C14.7499 14.68 14.9399 14.75 15.1299 14.75C15.3199 14.75 15.5099 14.68 15.6599 14.53C15.9499 14.24 15.9499 13.76 15.6599 13.47Z" />
</svg>

<?xml version="1.0" encoding="UTF-8"?>
<svg width="24" height="24" viewBox="0 0 24 24" xmlns="http://www.w3.org/2000/svg">
 <path d="m6.7303 19.7c0.82-0.88 2.07-0.81 2.79 0.15l1.01 1.35c0.81 1.07 2.12 1.07 2.93 0l1.01-1.35c0.72-0.96 1.9701-1.03 2.7901-0.15 1.78 1.9 3.2299 1.27 3.2299-1.39v-11.26c0-4.03-0.94-5.04-4.72-5.04h-7.56c-3.78 0-4.72 1.01-4.72 5.04v11.26c0.01 2.66 1.47 3.28 3.24 1.39z" opacity=".4"/>
 <path d="m15.66 13.47-0.74-0.74c0.38-0.58 0.61-1.28 0.61-2.03 0-2.04-1.66-3.7-3.7-3.7-2.04 0-3.7 1.66-3.7 3.7 0 2.04 1.66 3.7 3.7 3.7 0.75 0 1.45-0.23 2.03-0.61l0.74 0.74c0.15 0.15 0.34 0.22 0.53 0.22s0.38-0.07 0.53-0.22c0.29-0.29 0.29-0.77 0-1.06z"/>
</svg>
